resources/svg/text-t-bold.svg

<svg xmlns="http://www.w3.org/2000/svg" viewBox="0 0 256 256" fill="currentColor"><path d="M219.99414,55.99512v32a12,12,0,1,1-24,0v-20h-56v120h20a12,12,0,0,1,0,24h-64a12,12,0,0,1,0-24h20v-120h-56v20a12,12,0,0,1-24,0v-32a12,12,0,0,1,12-12h160A12,12,0,0,1,219.99414,55.99512Z"/></svg>

<svg xmlns="http://www.w3.org/2000/svg" viewBox="0 0 256 256" fill="currentColor"><path d="M220,56V88a12,12,0,0,1-24,0V68H140V188h20a12,12,0,0,1,0,24H96a12,12,0,0,1,0-24h20V68H60V88a12,12,0,0,1-24,0V56A12,12,0,0,1,48,44H208A12,12,0,0,1,220,56Z"/></svg>
